X:4
T:Hornpipe. RDO.04
M:4/4
L:1/8
Q:1/2=90
S:Robert D. Owen MS,Indiana,1826.
R:.Hornpipe
O:Indiana,USA
A:New Harmony
Z:vmp.Chris Partington
K:C
GF|EGc2BdGg|fedc Bcde|fd”tr”d2ec”tr”c2|BcdB GAGF|!
EFc2BdGg|fedc Bcde|fdec AdBG|c2c2c2:|!
|:gg|fgdg egcg|fgdg efgf|edcB Afag|fedc BdGF|!
EGc2BdGg|fedc Bcde|fdec GdBG|c2c2c2:|

